app/assets/images/general/icons/heart.svg

<svg width="14" height="13" viewBox="0 0 14 13" fill="none" xmlns="http://www.w3.org/2000/svg">
<mask id="path-1-inside-1" fill="white">
<path d="M12.8551 1.14059C12.131 0.414654 11.1163 0.00160723 10.0532 7.60127e-05C8.98921 0.00122443 7.97345 0.414052 7.2482 1.14012L7.00103 1.38372L6.75385 1.14012C5.31476 -0.304446 2.89253 -0.387405 1.34367 0.954792C1.27504 1.01429 1.20875 1.07609 1.14496 1.14012C-0.381652 2.67588 -0.381652 5.04933 1.14496 6.58509L6.63779 11.9876C6.82782 12.1747 7.14451 12.1827 7.34512 12.0055C7.35169 11.9997 7.35808 11.9937 7.3643 11.9876L12.8551 6.58509C14.3816 5.04949 14.3816 2.67618 12.8551 1.14059Z"/>
</mask>
<path d="M12.8551 1.14059L13.5643 0.435579L13.5631 0.434359L12.8551 1.14059ZM10.0532 7.60127e-05L10.0546 -0.999926L10.0521 -0.999923L10.0532 7.60127e-05ZM7.2482 1.14012L7.95016 1.85238L7.95571 1.84683L7.2482 1.14012ZM7.00103 1.38372L6.29909 2.09596L7.00103 2.78775L7.70297 2.09596L7.00103 1.38372ZM6.75385 1.14012L6.04538 1.84592L6.05191 1.85236L6.75385 1.14012ZM1.34367 0.954792L0.688781 0.199066L0.688627 0.199201L1.34367 0.954792ZM1.14496 1.14012L0.436505 0.434364L0.435741 0.435133L1.14496 1.14012ZM1.14496 6.58509L0.435696 7.29012L0.443737 7.29803L1.14496 6.58509ZM6.63779 11.9876L7.33939 11.275L7.33901 11.2746L6.63779 11.9876ZM7.34512 12.0055L6.68336 11.2558L6.68304 11.256L7.34512 12.0055ZM7.3643 11.9876L6.66295 11.2748L6.66239 11.2753L7.3643 11.9876ZM12.8551 6.58509L13.5565 7.29795L13.5643 7.29009L12.8551 6.58509ZM13.5631 0.434359C12.6442 -0.48686 11.372 -0.998026 10.0546 -0.999923L10.0517 1.00007C10.8606 1.00124 11.6178 1.31617 12.1471 1.84682L13.5631 0.434359ZM10.0521 -0.999923C8.73398 -0.998501 7.46081 -0.487738 6.5407 0.433417L7.95571 1.84683C8.4861 1.31584 9.24444 1.00095 10.0542 1.00008L10.0521 -0.999923ZM6.54626 0.427888L6.29909 0.671488L7.70297 2.09596L7.95014 1.85236L6.54626 0.427888ZM7.70297 0.671488L7.45579 0.427888L6.05191 1.85236L6.29909 2.09596L7.70297 0.671488ZM7.4623 0.43436C5.64936 -1.38547 2.63137 -1.48432 0.688781 0.199066L1.99856 1.71052C3.1537 0.709508 4.98015 0.776582 6.04541 1.84589L7.4623 0.43436ZM0.688627 0.199201C0.601849 0.274431 0.517729 0.352832 0.436506 0.434365L1.85341 1.84588C1.89978 1.79934 1.94823 1.75415 1.99871 1.71038L0.688627 0.199201ZM0.435741 0.435133C-1.47858 2.36093 -1.47858 5.36428 0.435741 7.29008L1.85417 5.8801C0.715276 4.73437 0.715276 2.99084 1.85417 1.84512L0.435741 0.435133ZM0.443737 7.29803L5.93657 12.7005L7.33901 11.2746L1.84618 5.87214L0.443737 7.29803ZM5.93619 12.7002C6.5028 13.2581 7.41529 13.2778 8.00721 12.7549L6.68304 11.256C6.78605 11.165 6.90762 11.1308 7.01276 11.1335C7.1179 11.1361 7.23942 11.1766 7.33939 11.275L5.93619 12.7002ZM8.00689 12.7552C8.02713 12.7373 8.04691 12.7189 8.06621 12.6999L6.66239 11.2753C6.66926 11.2686 6.67626 11.262 6.68336 11.2558L8.00689 12.7552ZM8.06565 12.7004L13.5565 7.29791L12.1538 5.87227L6.66295 11.2748L8.06565 12.7004ZM13.5643 7.29009C15.4786 5.36446 15.4786 2.36121 13.5643 0.43558L12.1459 1.8456C13.2847 2.99115 13.2847 4.73453 12.1459 5.88009L13.5643 7.29009Z" fill="white" mask="url(#path-1-inside-1)"/>
</svg>

<svg width="14" height="13" fill="none" xmlns="http://www.w3.org/2000/svg"><mask id="a" fill="#fff"><path d="M12.855 1.14A3.968 3.968 0 0010.053 0a3.974 3.974 0 00-2.805 1.14l-.247.244-.247-.244C5.314-.304 2.893-.387 1.344.955c-.069.06-.135.121-.199.185-1.527 1.536-1.527 3.91 0 5.445l5.493 5.403a.526.526 0 00.726 0l5.491-5.403c1.527-1.536 1.527-3.909 0-5.444z"/></mask><path d="M12.855 1.14l.71-.704-.002-.002-.708.707zM10.053 0l.002-1h-.003l.001 1zM7.248 1.14l.702.712.006-.005-.708-.707zm-.247.244l-.702.712.702.692.702-.692-.702-.712zm-.247-.244l-.709.706.007.006.702-.712zM1.344.955L.689.199l.655.756zm-.199.185L.437.434.436.435l.709.705zm0 5.445l-.71.705.009.008.701-.713zm5.493 5.403l.701-.713-.701.713zm.707.018l-.662-.75.662.75zm.02-.018l-.702-.713.701.713zm5.49-5.403l.701.713.008-.008-.709-.705zm.708-6.15A4.957 4.957 0 0010.055-1l-.003 2a2.969 2.969 0 012.095.847L13.563.434zM10.053-1C8.733-.999 7.46-.488 6.54.433l1.415 1.414A2.974 2.974 0 0110.054 1l-.002-2zM6.545.428L6.3.67l1.404 1.425.247-.244L6.546.428zM7.703.67L7.456.428 6.052 1.852l.247.244L7.703.671zm-.24-.237C5.648-1.386 2.63-1.484.688.2l1.31 1.512C3.154.71 4.98.777 6.045 1.846L7.462.434zM.688.2a4.72 4.72 0 00-.252.235l1.416 1.412c.047-.047.095-.092.146-.136L.689.2zM.436.435c-1.915 1.926-1.915 4.93 0 6.855l1.418-1.41c-1.139-1.146-1.139-2.89 0-4.035L.436.435zm.008 6.863L5.937 12.7l1.402-1.425-5.493-5.403L.444 7.298zM5.936 12.7c.567.558 1.48.578 2.071.055l-1.324-1.499a.48.48 0 01.33-.123.484.484 0 01.326.142L5.936 12.7zm2.07.055l.06-.055-1.404-1.425a.523.523 0 01.021-.02l1.324 1.5zm.06-.055l5.49-5.402-1.402-1.426-5.491 5.403L8.066 12.7zm5.498-5.41c1.915-1.926 1.915-4.929 0-6.854l-1.418 1.41c1.139 1.145 1.139 2.889 0 4.034l1.418 1.41z" fill="#fff" mask="url(#a)"/></svg>
